components/ui-node-icon/src/newBlankTable/newBlankTable.medium.svg

<svg width="24" height="24" viewBox="0 0 24 24" fill="none" xmlns="http://www.w3.org/2000/svg">
  <path fill-rule="evenodd" clip-rule="evenodd" d="M3 3C1.89543 3 1 3.89543 1 5V19C1 20.1046 1.89543 21 3 21H9.75463C8.65672 19.6304 8 17.8919 8 16C8 11.5817 11.5817 8 16 8C17.8919 8 19.6304 8.65672 21 9.75463V5C21 3.89543 20.1046 3 19 3H3Z" fill="var(--tbl--colors--icons--source--secondary)"/>
  <path fill-rule="evenodd" clip-rule="evenodd" d="M3 3C1.89543 3 1 3.89543 1 5V6H21V5C21 3.89543 20.1046 3 19 3H3ZM24 16C24 20.4183 20.4183 24 16 24C11.5817 24 8 20.4183 8 16C8 11.5817 11.5817 8 16 8C20.4183 8 24 11.5817 24 16ZM16 12C15.4477 12 15 12.4477 15 13V15H13C12.4477 15 12 15.4477 12 16C12 16.5523 12.4477 17 13 17H15V19C15 19.5523 15.4477 20 16 20C16.5523 20 17 19.5523 17 19V17H19C19.5523 17 20 16.5523 20 16C20 15.4477 19.5523 15 19 15H17V13C17 12.4477 16.5523 12 16 12Z" fill="var(--tbl--colors--icons--source--primary)"/>
</svg>

<svg xmlns="http://www.w3.org/2000/svg" width="24" height="24" fill="none" viewBox="0 0 24 24">
  <path fill="var(--tbl--colors--icons--source--secondary)" fill-rule="evenodd" d="M3 3a2 2 0 0 0-2 2v14a2 2 0 0 0 2 2h6.755A8 8 0 0 1 21 9.755V5a2 2 0 0 0-2-2H3Z" clip-rule="evenodd"/>
  <path fill="var(--tbl--colors--icons--source--primary)" fill-rule="evenodd" d="M3 3a2 2 0 0 0-2 2v1h20V5a2 2 0 0 0-2-2H3Zm21 13a8 8 0 1 1-16 0 8 8 0 0 1 16 0Zm-8-4a1 1 0 0 0-1 1v2h-2a1 1 0 1 0 0 2h2v2a1 1 0 1 0 2 0v-2h2a1 1 0 1 0 0-2h-2v-2a1 1 0 0 0-1-1Z" clip-rule="evenodd"/>
</svg>
